public/icons/svg/profile.svg

<?xml version="1.0" encoding="UTF-8"?>
<svg xmlns="http://www.w3.org/2000/svg" id="Layer_1" data-name="Layer 1" viewBox="0 0 24 24">
  <path d="m12,12c3.309,0,6-2.691,6-6S15.309,0,12,0s-6,2.691-6,6,2.691,6,6,6Zm0-11c2.757,0,5,2.243,5,5s-2.243,5-5,5-5-2.243-5-5S9.243,1,12,1Zm9,22v.5c0,.276-.224.5-.5.5s-.5-.224-.5-.5v-.5c0-3.538-2.309-6.547-5.499-7.599l-1.462,2.193,1.446,5.786c.066.268-.117.621-.485.621-.225,0-.429-.151-.485-.379l-1.5-6c-.034-.137-.009-.281.069-.398l1.391-2.086c-.478-.089-.971-.137-1.475-.137s-.996.047-1.474.137l1.39,2.086c.078.117.103.262.069.398l-1.5,6c-.057.228-.26.379-.484.379-.338,0-.553-.354-.485-.621l1.446-5.786-1.462-2.193c-3.19,1.052-5.5,4.061-5.5,7.599v.5c0,.276-.224.5-.5.5s-.5-.224-.5-.5v-.5c0-4.962,4.038-9,9-9s9,4.038,9,9Z"/>
</svg>

<?xml version="1.0" encoding="utf-8"?>
<!-- Generator: Adobe Illustrator 28.3.0, SVG Export Plug-In . SVG Version: 6.00 Build 0)  -->
<svg version="1.1" id="Layer_1" xmlns="http://www.w3.org/2000/svg" xmlns:xlink="http://www.w3.org/1999/xlink" x="0px" y="0px"
	 viewBox="0 0 24 24" style="enable-background:new 0 0 24 24;" xml:space="preserve">
<path d="M12,12c3.3,0,6-2.7,6-6s-2.7-6-6-6S6,2.7,6,6S8.7,12,12,12z M12,1c2.8,0,5,2.2,5,5s-2.2,5-5,5S7,8.8,7,6S9.2,1,12,1z
	 M21,23.4v0.1c0,0.3-0.2,0.5-0.5,0.5S20,23.8,20,23.5V23c0-3.5-2.3-6.5-5.5-7.6c0,0,0,0,0,0l0,0c0,0,0,0,0,0l0,0
	c0.1,0.3-0.1-0.2,0,0c0,0,0,0.2,0,0l0,0c0-0.1-0.1,0.1,0,0l-1.1-0.3C13,15,12.5,15,12,15s-1,0-1.5,0.1l0,0c0.1,0.1,0-0.1,0,0l0,0
	c-0.1,0.2,0-0.1,0,0c-0.1,0.2-0.1,0.3,0,0l0,0c0,0,0,0,0,0l0,0c0,0-1,0.3-1.1,0.3C6.3,16.5,4,19.5,4,23v0.5C4,23.8,3.8,24,3.5,24
	S3,23.8,3,23.5V23c0-5.2,4.4-9.3,9.6-9C17.4,14.3,21,18.5,21,23.4z"/>
</svg>
